X:24
T:Big Gull Lake Breakdo
R:reel
C:Bruce Osborne - Dec. 2002
Z:abc by bosborne@kos.net
M:2/4
L:1/8
K:Amaj
c/B/|A/E/C/E/ A/E/A/c/|f/e/c/f/ e/c/A/c/|e/a/g/a/ f/e/c/f/|e/c/A/c/ B/d/c/B/|\
A/E/C/E/ A/E/A/c/|f/e/c/f/ e/c/A/c/|e/a/g/a/ f/e/c/f/|e/c/B/c/ A:|
|:G/A/|B/E/E/G/ B/E/G/B/|c/A/A/c/ e/c/A/c/|B/E/E/G/ B/E/G/B/|c/A/E/C/ A,G/A/|\
B/E/E/G/ B/E/G/B/|c/A/A/c/ e/c/A/c/|B/E/E/G/ B/E/G/B/|c/A/A/G/ A:|
